X:467
T: RARITAETE SEIN ALLZUSCHOENE
N: E1722
O: Europa, Mitteleuropa, Deutschland
R: Scherz - Lied, Guckkasten - Lied
M: 2/4
L: 1/16
K: C
 | G2G2c2G2 | E2G2C4 |
G2c2c2e2 | d2B2G2z2 |
G2G2c2G2 | E2G2C4 |
G2c2c2e2 | d2B2G2z2 |
e2c2c2de | f2d2d4 |
e2c2c2de | d2B2G4 |
c3Bc2E2 | F2G2C4

@@@ Tune index: 5151
